modules/linearicons/icons/film-play.svg

<?xml version="1.0" encoding="utf-8"?>
<!-- Generated by IcoMoon.io -->
<!DOCTYPE svg PUBLIC "-//W3C//DTD SVG 1.1//EN" "http://www.w3.org/Graphics/SVG/1.1/DTD/svg11.dtd">
<svg version="1.1" xmlns="http://www.w3.org/2000/svg" xmlns:xlink="http://www.w3.org/1999/xlink" width="20" height="20" viewBox="0 0 20 20">
<path fill="#000000" d="M7.5 15c-0.076 0-0.153-0.017-0.224-0.053-0.169-0.085-0.276-0.258-0.276-0.447v-9c0-0.189 0.107-0.363 0.276-0.447s0.372-0.066 0.524 0.047l6 4.5c0.126 0.094 0.2 0.243 0.2 0.4s-0.074 0.306-0.2 0.4l-6 4.5c-0.088 0.066-0.194 0.1-0.3 0.1zM8 6.5v7l4.667-3.5-4.667-3.5z"></path>
<path fill="#000000" d="M19.5 2h-19c-0.276 0-0.5 0.224-0.5 0.5v15c0 0.276 0.224 0.5 0.5 0.5h19c0.276 0 0.5-0.224 0.5-0.5v-15c0-0.276-0.224-0.5-0.5-0.5zM3 11h-2v-2h2v2zM3 8h-2v-2h2v2zM1 12h2v2h-2v-2zM4 3h12v14h-12v-14zM17 9h2v2h-2v-2zM17 8v-2h2v2h-2zM17 12h2v2h-2v-2zM19 5h-2v-2h2v2zM3 3v2h-2v-2h2zM1 15h2v2h-2v-2zM17 17v-2h2v2h-2z"></path>
</svg>

<svg xmlns="http://www.w3.org/2000/svg" width="20" height="20"><path d="M7.5 15a.5.5 0 0 1-.5-.5v-9a.5.5 0 0 1 .8-.4l6 4.5a.5.5 0 0 1 0 .8l-6 4.5a.5.5 0 0 1-.3.1zM8 6.5v7l4.667-3.5L8 6.5z"/><path d="M19.5 2H.5a.5.5 0 0 0-.5.5v15a.5.5 0 0 0 .5.5h19a.5.5 0 0 0 .5-.5v-15a.5.5 0 0 0-.5-.5zM3 11H1V9h2v2zm0-3H1V6h2v2zm-2 4h2v2H1v-2zm3-9h12v14H4V3zm13 6h2v2h-2V9zm0-1V6h2v2h-2zm0 4h2v2h-2v-2zm2-7h-2V3h2v2zM3 3v2H1V3h2zM1 15h2v2H1v-2zm16 2v-2h2v2h-2z"/></svg>
